Adwaita++-Dark/apps/16/zenmap.svg

<svg height="16" width="16" xmlns="http://www.w3.org/2000/svg">
  <g fill="#e6ddff" transform="translate(-223 -649)">
    <path d="m230.5002 649.01339c-4.13029 0-7.48661 3.35631-7.48661 7.48661 0 4.13029 3.35632 7.48661 7.48661 7.48661s7.4866-3.35632 7.4866-7.48661c0-4.1303-3.35631-7.48661-7.4866-7.48661zm0 1.97322c3.04941 0 5.51339 2.46398 5.51339 5.51339s-2.46398 5.51339-5.51339 5.51339-5.5134-2.46398-5.5134-5.51339 2.46399-5.51339 5.5134-5.51339z"/>
    <path d="m7.4902344 2.4921875a.50005.50005 0 0 0 -.4941406.5058594l-.0175782 4.09375-3.9804687.015625a.50005.50005 0 1 0 .0039062 1l1.9863281-.0078125h1.9863282l-.015625 3.8984376a.50005.50005 0 1 0 1 .003906l.015625-3.9140624 4.0273436-.015625a.50005.50005 0 1 0 -.003906-1l-3.4550782.0136719 2.1445312-2.0214844a.50005.47621651 0 0 0 -.21875-.8027343.50005.47621651 0 0 0 -.46875.1484374l-2.0175781 1.8613282.0136719-3.2695313a.50005.50005 0 0 0 -.5058594-.5097656z" transform="translate(223 649)"/>
  </g>
</svg>

<svg xmlns="http://www.w3.org/2000/svg" width="16" height="16" version="1.1">
 <title id="title9167">
  Gnome Symbolic Icon Theme
 </title>
 <g id="layer11" transform="translate(-223,-649)">
  <path fill="#E6DDFF" d="m 230.5002,649.01339 c -4.13029,0 -7.48661,3.35631 -7.48661,7.48661 0,4.13029 3.35632,7.48661 7.48661,7.48661 4.13029,0 7.4866,-3.35632 7.4866,-7.48661 0,-4.1303 -3.35631,-7.48661 -7.4866,-7.48661 z m 0,1.97322 c 3.04941,0 5.51339,2.46398 5.51339,5.51339 0,3.04941 -2.46398,5.51339 -5.51339,5.51339 -3.04941,0 -5.5134,-2.46398 -5.5134,-5.51339 0,-3.04941 2.46399,-5.51339 5.5134,-5.51339 z"/>
  <path fill="#E6DDFF" d="M 7.4902344 2.4921875 A 0.50005 0.50005 0 0 0 6.9960938 2.9980469 L 6.9785156 7.0917969 L 2.9980469 7.1074219 A 0.50005 0.50005 0 1 0 3.0019531 8.1074219 L 4.9882812 8.0996094 L 6.9746094 8.0996094 L 6.9589844 11.998047 A 0.50005 0.50005 0 1 0 7.9589844 12.001953 L 7.9746094 8.0878906 L 12.001953 8.0722656 A 0.50005 0.50005 0 1 0 11.998047 7.0722656 L 8.5429688 7.0859375 L 10.6875 5.0644531 A 0.50005 0.47621651 0 0 0 10.46875 4.2617188 A 0.50005 0.47621651 0 0 0 10 4.4101562 L 7.9824219 6.2714844 L 7.9960938 3.0019531 A 0.50005 0.50005 0 0 0 7.4902344 2.4921875 z" transform="translate(223,649)"/>
 </g>
</svg>
